X:49
%%scale .7
T:White Petticoat/Stan Chapman's/ Miller's Maggot (Louise's)
C:Louise Frampton brought this set into Dunedin sessions (The Albar session plays White Petticoat with The Mooncoin)
T:White Petticoat
M:6/8
L:1/8
K:Em
B||:Bed cBA |GFE B,EG|FBB cBB|eBB cBA|Bed cBA|GFE B,EG|FBB cBA|GEE E3:||:
gec Gce|gfg gec|cBA EAc|Be^d eBG|FBB GBB|FBA GFE|B,EG cBA|GEE E3:||
T:Stan Chapman's
T:Willie's Trip To Toronto
M:6/8
L:1/8
R:jig
K:Amaj
||:E3 EFA|B3 Bce|fea fec|ecA BAF|E3 EFA|B3 Bce|fea fec|ecA A3:||:
e3 ece|f3 fga|ecA B3|cAE Eaf|e3 ece|f3 fga|ecA B3|1cAA Aaf:||2cAA A3|
T:Miller's Maggot, The
M:6/8
L:1/8
R:Jig
K:G
G2A B2A|B2A BGE|G2A B2A|Bee dBA|G2A B2A|B2A BGE|gfe dBA|Bee dBA:||:
e2f fge|d2B BAG|e2f g3|aga bge|e2f fge|d2B BAG|A2B cBA|Bee dBA:||
